X:594
T:An dro - Hanter dro
C:Stephan Steiner
Z:abc transcription Simon Wascher
N:please mail errors to simon.wascher@chello.at
M:2/4
L:1/8
K:Gm
gf/e/ g>f|de dc|gf/e/ g>f|de c2|
gf/e/ g>f|de dc|gf/e/ g>f|dec2||
cB/A/ Gc d/c/B|cB/A/ Gc d/c/B|cB/A/ Gcd2|cB/A/ Gc d/c/B|
cB/A/ Gc d/c/B|cB/A/ Gcd2|]


